X: 1
T: Blind David
C: trad. arr. Andy Reiner / Rustic Roots
R: march, reel
S: https://www.patreon.com/posts/rustic-roots-27198819
Z: 2020 John Chambers <jc:trillian.mit.edu>
M: 4/4
L: 1/8
K: E
"^A"|: "Em"[A2E2][A2E2] [G2G,2][G2G,2] | [eB][e2B2][d-D-] [d2D2]d2 | "D"f3g fedf |[1,3 edBA dB3 :|[2,4 edBA "Em"e4 :| 
"^B"|: "Em"e2f2 g2f2 | ed2B- 2B2 | "A5"A4 A3B |[1,3 AGED GE3 :|[2,4 edBA "Em"E4 :|
